Printex-remake/img/icons/catalog_small/05.svg

<svg width="88" height="87" viewBox="0 0 88 87" fill="none" xmlns="http://www.w3.org/2000/svg">
<rect width="56.4729" height="34.8707" transform="matrix(0.868466 -0.495748 -3.22572e-05 1 10.2207 37.9183)" fill="#FFE1D3"/>
<path d="M10.7198 71.9281L10.7209 35.6597L62.351 6.1877L62.3498 42.456L10.7198 71.9281Z" stroke="black" stroke-linejoin="bevel"/>
<path d="M60.7133 3.55103L8.08324 33.5939L8.08203 71.0137" stroke="black" stroke-linejoin="bevel"/>
<path d="M58.019 1.77551L5.3889 31.8184L5.3877 69.2382" stroke="black" stroke-linejoin="bevel"/>
<path d="M39.2808 42.4785L11.7201 35.2002L61.5685 6.74514L39.2808 42.4785Z" fill="#FFE1D3" stroke="black" stroke-linejoin="bevel"/>
<path d="M26.4901 47.4949L10.4102 72.467L62.4085 42.6122L53.4289 39.949" stroke="black" stroke-linejoin="bevel"/>
<path d="M63.6518 42.4745L79.0199 44.6938L26.1434 74.8729L10.7753 72.6536L63.6518 42.4745Z" fill="#E5CABE"/>
<path d="M39.74 36.996L40.1206 37.5788L40.5012 36.5654C40.7121 36.0041 41.0632 35.214 41.5789 34.4647C42.1094 33.6938 42.7028 33.1241 43.3532 32.7561C45.1708 31.7279 46.5825 32.6282 46.5824 34.9887C46.5824 36.2384 46.1511 37.5553 45.3284 39.1597C44.4947 40.7855 43.2934 42.6419 41.7961 44.9529L41.7961 44.9529L41.7959 44.9532C41.2912 45.7322 40.7172 46.6181 40.1203 47.5548C39.5238 47.2937 38.9501 47.0573 38.4459 46.8494L38.4449 46.849L38.4449 46.849C36.9475 46.232 35.7461 45.7347 34.9125 45.0521C34.0899 44.3785 33.6587 43.5495 33.6587 42.2998C33.6588 39.9393 35.0706 37.4417 36.8881 36.4135C37.5386 36.0455 38.132 35.9439 38.6624 36.1146L38.9275 35.5686L38.6624 36.1146C39.1781 36.2804 39.5292 36.6732 39.74 36.996Z" fill="#FFE1D3" stroke="black"/>
<path d="M41.5369 37.8838L41.9175 38.4666L42.2981 37.4532C42.5089 36.892 42.8601 36.1018 43.3758 35.3525C43.9063 34.5817 44.4997 34.0119 45.1501 33.6439C46.9677 32.6157 48.3794 33.516 48.3793 35.8765C48.3793 37.1263 47.948 38.4431 47.1253 40.0475C46.2916 41.6733 45.0902 43.5298 43.593 45.8407L43.593 45.8407L43.5928 45.841C43.0881 46.62 42.5141 47.5059 41.9172 48.4426C41.3206 48.1815 40.747 47.9451 40.2427 47.7373L40.2418 47.7368L40.2417 47.7368C38.7444 47.1198 37.543 46.6225 36.7094 45.9399C35.8867 45.2663 35.4555 44.4373 35.4556 43.1876C35.4556 40.8271 36.8675 38.3295 38.685 37.3013C39.3355 36.9333 39.9288 36.8317 40.4593 37.0024L40.7244 36.4564L40.4593 37.0024C40.975 37.1683 41.3261 37.5611 41.5369 37.8838Z" fill="white" stroke="black"/>
</svg>

<svg width="88" height="87" fill="none" xmlns="http://www.w3.org/2000/svg"><path fill="#FFE1D3" d="M10.22 37.918L59.267 9.922l-.002 34.87L10.22 72.79z"/><path d="M10.72 71.928V35.66L62.352 6.188l-.001 36.268-51.63 29.472z" stroke="#000" stroke-linejoin="bevel"/><path d="M60.713 3.551L8.083 33.594l-.001 37.42" stroke="#000" stroke-linejoin="bevel"/><path d="M58.019 1.776L5.389 31.818l-.001 37.42" stroke="#000" stroke-linejoin="bevel"/><path d="M39.28 42.478L11.72 35.2 61.57 6.745 39.28 42.478z" fill="#FFE1D3" stroke="#000" stroke-linejoin="bevel"/><path d="M26.49 47.495L10.41 72.467l51.998-29.855-8.98-2.663" stroke="#000" stroke-linejoin="bevel"/><path d="M63.652 42.474l15.368 2.22-52.877 30.179-15.368-2.22 52.877-30.179z" fill="#E5CABE"/><path d="M39.74 36.996l.38.583.381-1.014a9.964 9.964 0 011.078-2.1c.53-.771 1.124-1.34 1.774-1.709 1.818-1.028 3.23-.128 3.23 2.233 0 1.25-.432 2.566-1.255 4.17-.833 1.627-2.035 3.483-3.532 5.794h0c-.505.78-1.079 1.665-1.676 2.602a83.937 83.937 0 00-1.674-.706h-.001 0c-1.498-.617-2.699-1.114-3.532-1.797-.823-.673-1.254-1.502-1.254-2.752 0-2.36 1.412-4.858 3.23-5.886.65-.369 1.243-.47 1.773-.3l.266-.545-.266.546c.516.165.867.558 1.078.881z" fill="#FFE1D3" stroke="#000"/><path d="M41.537 37.884l.38.583.381-1.014a9.961 9.961 0 011.078-2.1c.53-.771 1.124-1.341 1.774-1.71 1.818-1.027 3.23-.127 3.23 2.233 0 1.25-.432 2.567-1.255 4.172-.833 1.625-2.035 3.482-3.532 5.793h0c-.505.779-1.079 1.665-1.676 2.602a82.635 82.635 0 00-1.674-.706h-.001 0c-1.498-.617-2.699-1.114-3.533-1.797-.822-.674-1.254-1.503-1.253-2.752 0-2.36 1.411-4.858 3.229-5.887.65-.368 1.244-.47 1.774-.299l.265-.546-.265.546c.516.166.867.56 1.078.882z" fill="#fff" stroke="#000"/></svg>
